X:77
T:RVW2/2/77 The Cambric Shirt
C:Mrs. Humphreys, Ingrave, Essex, 25 April 1904
L:1/8
Q:1/4=75
M:6/8
I:linebreak $
K:G
"^(Editorial suggestion)  " B | Gdd ded | c2 B G3 | GGA (BA)G | ccc !fermata!d2 d |$ ggg (fe)d | 
w: Come|buy me, come buy me a|cam- bric shirt|(Sa- vou- ry says _ rose-|ma- ry and thyme) With-|out a- ny seam _ and|
ccA F3 | GGA (Bc)d | cAB G2 |] 
w: good nee- dle work,|Then you shall be _ true|lo- ver of mine.|



